X: 41377
T: Tuttle's
R: reel
M: 4/4
K: Ddorian
|:"Dm"A,DDE FEFG|"Dm"A2Gc Ad~d2|"Dm"A,DDE F2dB|"C"cAGE FDEC|
"Dm"A,DDE FEFG|"Dm" A2Gc Ad~d2|"Dm"f2ed dcAB|"C"cAGE "Dm"EDD2:|
|:"Dm"d2dB "C"c2cG|"Dm"AddB "C"cAGA|"Dm" d2dB "C" cdcA|"C"GEcE "Dm" EDD2|
"Dm"d2dB "C"c2cG|"Dm"AddB "C"cAGA|"Dm"f2ed dcAB|"C"cAGE "Dm"EDD2:|

